X:475
T:Officers Polka
M:4/4
L:1/8
K:G
B2 d2 G4 | B2 d2 G3 B | c2 e2 g2 e2 | e2 d2 d3 c |
B2 d2 G4 | B2 A2 B2 d2 | g4 g3 f | g2 B2 A4 :|
g6 ag | f6 gf | e6 fe | d6 B2 |
c2 e2 d2 c2 | B2 d2 c2 B2 | A2 c2 B2 A2 | A2 G2 G4 :|
